X:308
M:6/8
L:1/8
K:D
|:afa agf|gfg bag|fga agf|gfg efg|a3 f3|ede fdB|AFA faf|ded d3:|

